icons/badge/x/shield.svg

<svg width="32" height="32" viewBox="0 0 32 32" xmlns="http://www.w3.org/2000/svg"><path fill-rule="evenodd" clip-rule="evenodd" d="M15.4807 1.1041C15.8208 1.01262 16.1792 1.01262 16.5193 1.1041L28.5193 4.33085C29.3929 4.56573 30 5.35769 30 6.26224V12C30 21.4849 23.6659 28.3497 16.2747 30.4615L16 30.54L15.7253 30.4615C8.33412 28.3497 2 21.4849 2 12V6.26224C2 5.35769 2.60713 4.56573 3.48066 4.33085L15.4807 1.1041ZM16 3.03549L4 6.26224L4 12C4 20.3968 9.50964 26.4794 16 28.4573C22.4904 26.4794 28 20.3968 28 12L28 6.26224L16 3.03549ZM17.4142 15L21.7071 10.7071L20.2929 9.2929L16 13.5858L11.7071 9.2929L10.2929 10.7071L14.5858 15L10.2929 19.2929L11.7071 20.7071L16 16.4142L20.2929 20.7071L21.7071 19.2929L17.4142 15Z"/></svg>

<svg viewBox="0 0 32 32" xmlns="http://www.w3.org/2000/svg"><path fill-rule="evenodd" d="M15.48 1.104a2 2 0 011.04 0l12 3.227A2 2 0 0130 6.262V12c0 9.485-6.334 16.35-13.725 18.462L16 30.54l-.275-.078C8.335 28.35 2 21.485 2 12V6.262a2 2 0 011.48-1.931l12-3.227zM16 3.035L4 6.262V12c0 8.397 5.51 14.48 12 16.457C22.49 26.48 28 20.397 28 12V6.262L16 3.035zM17.414 15l4.293-4.293-1.414-1.414L16 13.586l-4.293-4.293-1.414 1.414L14.586 15l-4.293 4.293 1.414 1.414L16 16.414l4.293 4.293 1.414-1.414L17.414 15z"/></svg>
